poi/svg/1605.svg

<?xml version="1.0" encoding="UTF-8" standalone="no"?>
<svg
   xmlns:dc="http://purl.org/dc/elements/1.1/"
   xmlns:cc="http://creativecommons.org/ns#"
   xmlns:rdf="http://www.w3.org/1999/02/22-rdf-syntax-ns#"
   xmlns:svg="http://www.w3.org/2000/svg"
   xmlns="http://www.w3.org/2000/svg"
   xmlns:sodipodi="http://sodipodi.sourceforge.net/DTD/sodipodi-0.dtd"
   xmlns:inkscape="http://www.inkscape.org/namespaces/inkscape"
   inkscape:version="1.0 (4035a4fb49, 2020-05-01)"
   sodipodi:docname="1605.svg"
   id="svg20"
   version="1.2"
   viewBox="0 0 42.519639 42.519639"
   height="14.999999mm"
   width="14.999999mm">
  <metadata
     id="metadata24">
    <rdf:RDF>
      <cc:Work
         rdf:about="">
        <dc:format>image/svg+xml</dc:format>
        <dc:type
           rdf:resource="http://purl.org/dc/dcmitype/StillImage" />
        <dc:title>Qt SVG Document</dc:title>
      </cc:Work>
    </rdf:RDF>
  </metadata>
  <sodipodi:namedview
     inkscape:current-layer="svg20"
     inkscape:window-maximized="0"
     inkscape:window-y="0"
     inkscape:window-x="0"
     inkscape:cy="28.346482"
     inkscape:cx="28.346482"
     inkscape:zoom="5.8410537"
     showgrid="false"
     id="namedview22"
     inkscape:window-height="480"
     inkscape:window-width="1034"
     inkscape:pageshadow="2"
     inkscape:pageopacity="0"
     guidetolerance="10"
     gridtolerance="10"
     objecttolerance="10"
     borderopacity="1"
     bordercolor="#666666"
     pagecolor="#ffffff" />
  <title
     id="title2">Qt SVG Document</title>
  <desc
     id="desc4">Generated with Qt</desc>
  <defs
     id="defs6" />
  <g
     transform="translate(5.25984,5.25984)"
     id="g18"
     stroke-linejoin="bevel"
     stroke-linecap="square"
     fill-rule="evenodd"
     stroke-width="1"
     stroke="#000000"
     fill="none">
    <g
       id="g10"
       font-style="normal"
       font-weight="400"
       font-size="7.8px"
       font-family="'MS Shell Dlg 2'"
       stroke="none"
       fill-opacity="1"
       fill="#53a54f">
      <path
         id="path8"
         d="M 37.2598,16 C 37.2598,27.7415 27.7415,37.2598 16,37.2598 4.25851,37.2598 -5.25984,27.7415 -5.25984,16 -5.25984,4.25851 4.25851,-5.25984 16,-5.25984 27.7415,-5.25984 37.2598,4.25851 37.2598,16"
         fill-rule="evenodd"
         vector-effect="non-scaling-stroke" />
    </g>
    <g
       id="g14"
       font-style="normal"
       font-weight="400"
       font-size="7.8px"
       font-family="'MS Shell Dlg 2'"
       transform="translate(16,12.5984)"
       stroke="none"
       fill-opacity="1"
       fill="#ffffff">
      <path
         id="path12"
         d="m 8.78857,10.2617 c 0.76986,0.196 1.50473,0.4234 2.20463,0.6824 0.6998,0.2589 1.3927,0.5284 2.0786,0.8083 v 0.9869 c -2.0296,-0.308 -4.11176,-0.5494 -6.24636,-0.7244 -2.1346,-0.175 -4.36369,-0.2625 -6.687256,-0.2625 -2.323564,0 -4.580644,0.1085 -6.771244,0.3255 -2.19059,0.2169 -4.32174,0.4864 -6.39334,0.8083 v -1.0498 c 0.7419,-0.3079 1.4943,-0.5984 2.2571,-0.8713 0.7629,-0.273 1.55722,-0.5074 2.38307,-0.7034 V 7.51123 h -4.64017 l 3.0235,-4.09424 h -1.4698 l 0.042,-0.04199 0.084,-0.12598 c 0.028,-0.05599 0.056,-0.10498 0.084,-0.14697 0.028,-0.04199 0.07,-0.09098 0.126,-0.14697 l 0.3149,-0.44092 c 0.056,-0.08398 0.126,-0.18197 0.21,-0.29395 0.084,-0.11197 0.168,-0.24495 0.2519,-0.39892 l 0.65092,-0.944825 c 0.13997,-0.167969 0.28344,-0.360433 0.43042,-0.577393 0.14697,-0.2169594 0.30444,-0.437418 0.47241,-0.661377 h -1.19675 l 0.04196,-0.041992 c 0,0 0.014,-0.013997 0.04199,-0.041992 l 0.042,-0.083984 c 0,0 0.02799,-0.027995 0.08398,-0.083985 l 0.08399,-0.188965 c 0.02799,-0.027994 0.04899,-0.055989 0.06298,-0.083984 0.014,-0.027995 0.035,-0.05599 0.06299,-0.083984 l 0.16797,-0.251949 c 0.05599,-0.05599 0.09098,-0.09799 0.10498,-0.12598 0.014,-0.028 0.04899,-0.06999 0.10498,-0.12598 l 0.27295,-0.35693 C -8.82015,-2 -8.72217,-2.12598 -8.63818,-2.20996 l 0.33593,-0.48291 c 0.06999,-0.08399 0.13998,-0.16797 0.20996,-0.25195 0.06999,-0.08399 0.13298,-0.18197 0.18897,-0.29395 l 0.41992,-0.60889 h 0.04199 v 0.042 c 0.028,0.02799 0.042,0.04899 0.042,0.06298 0,0.014 0.02099,0.035 0.06298,0.06299 l 0.20997,0.25196 c 0.02799,0.06998 0.06298,0.13997 0.10498,0.20996 0.04199,0.06998 0.09098,0.14697 0.14697,0.23095 l 0.48291,0.60889 c 0.08398,0.13997 0.17497,0.27995 0.27295,0.41992 0.09798,0.13998 0.20296,0.28695 0.31494,0.44092 l 0.81885,1.154785 h -1.19678 c 0,0.027995 0.014,0.041992 0.04199,0.041992 l 0.04199,0.083985 c 0.028,0.027995 0.042,0.048991 0.042,0.062988 0,0.013998 0.01399,0.034994 0.04199,0.062988 l 0.16797,0.2099614 c 0.05599,0.0559896 0.09798,0.1154786 0.12597,0.1784666 0.028,0.062988 0.07699,0.122477 0.14698,0.178467 l 0.37793,0.503906 c 0.05599,0.083981 0.12597,0.178471 0.20996,0.283451 0.08398,0.10498 0.16797,0.21346 0.25195,0.32544 V 1.61133 H -4.7749 v 0.04199 l -0.04199,0.04199 c 0,0 -0.014,0.014 -0.042,0.04199 l -0.04199,0.08399 c 0,0 -0.014,0.02799 -0.04199,0.08398 l -0.08399,0.08399 c -0.02799,0.04199 -0.04199,0.06998 -0.04199,0.08398 0,0.014 -0.014,0.035 -0.04199,0.06299 L -5.23682,2.3042 C -5.29281,2.36019 -5.3348,2.41618 -5.36279,2.47217 L -5.48877,2.64014 C -5.54476,2.75212 -5.60775,2.8361 -5.67773,2.89209 h 1.80566 c 0,0 -0.014,0.021 -0.04199,0.06299 L -4.04004,3.12305 C -4.09603,3.17904 -4.13802,3.23503 -4.16602,3.29102 -4.19401,3.34701 -4.236,3.40299 -4.29199,3.45898 l -0.37793,0.5669 C -4.7679,4.13786 -4.85889,4.25684 -4.94287,4.38281 -5.02686,4.50879 -5.13883,4.66276 -5.27881,4.84473 l -0.81885,1.15478 c -0.13997,0.22396 -0.30444,0.45842 -0.4934,0.70337 -0.18897,0.24496 -0.39543,0.51441 -0.61939,0.80835 h 0.41992 V 9.90479 C -5.78271,9.68083 -4.7714,9.51986 -3.75659,9.42188 -2.74178,9.32389 -1.71647,9.23991 -0.680664,9.16992 V 7.1123 H -6.26563 l 3.52735,-4.76611 h -1.80567 l 3.17041,-4.43017 H -2.73828 L 0.138184,-6.17822 3.14063,-2.08398 H 1.69189 l 3.2544,4.43017 H 3.14063 L 6.66797,7.1123 H 0.999023 V 9.16992 C 2.09082,9.23991 3.14412,9.31689 4.15894,9.40088 5.17375,9.48486 6.15706,9.62484 7.10889,9.8208 V 7.51123 H 7.61279 7.5708 L 7.52881,7.42725 c 0,-0.042 -0.04199,-0.10498 -0.12598,-0.18897 L 7.19287,6.94434 C 7.13688,6.86035 7.07039,6.77637 6.99341,6.69238 6.91642,6.6084 6.84993,6.50342 6.79395,6.37744 L 6.20605,5.55859 C 6.05208,5.39063 5.91211,5.21566 5.78613,5.03369 5.66016,4.85173 5.52718,4.64176 5.38721,4.40381 L 4.27441,2.89209 H 6.08008 L 5.30322,1.86328 V 1.82129 h 0.04199 c 0,-0.028 0.042,-0.08399 0.12598,-0.16797 0,-0.02799 0.007,-0.04899 0.021,-0.06299 C 5.50618,1.57633 5.51318,1.55534 5.51318,1.52734 5.56917,1.47135 5.61816,1.40837 5.66016,1.33838 5.70215,1.26839 5.75114,1.18441 5.80713,1.08643 5.83512,1.03044 5.86312,0.995443 5.89111,0.981445 5.91911,0.967448 5.9471,0.932454 5.9751,0.876465 6.10107,0.680501 6.30404,0.393555 6.58398,0.015625 H 5.47119 L 7.82275,-3.28076 h 0.06299 c 0,0 0.014,0.02799 0.04199,0.08398 0,0 0.014,0.028 0.042,0.08399 0.02799,0.02799 0.12597,0.15397 0.29394,0.37793 0.05599,0.11198 0.11198,0.19596 0.16797,0.25195 0.08399,0.12598 0.17847,0.26595 0.28345,0.41992 0.10498,0.15397 0.22746,0.33594 0.36743,0.5459 0.05599,0.05599 0.10498,0.12598 0.14697,0.20996 0.04199,0.08399 0.09099,0.15397 0.14697,0.20996 0.13998,0.167971 0.26945,0.339439 0.38843,0.514406 0.11898,0.174968 0.24841,0.374431 0.38841,0.598389 H 9.04053 L 9.08252,0.0576172 9.12451,0.141602 c 0.028,0 0.04199,0.013997 0.04199,0.041992 l 0.08399,0.146972 0.12597,0.125977 0.12598,0.209961 c 0.028,0.055989 0.09098,0.125976 0.18897,0.209961 L 9.90137,1.19141 C 9.92936,1.2474 9.95736,1.30339 9.98535,1.35938 10.0133,1.41536 10.0553,1.47135 10.1113,1.52734 l 0.294,0.41993 c 0.056,0.06998 0.1155,0.14697 0.1784,0.23095 0.063,0.08399 0.1225,0.16797 0.1785,0.25196 l 0.3779,0.56689 c 0.084,0.11198 0.1645,0.21696 0.2415,0.31494 0.077,0.09798 0.1575,0.20296 0.2414,0.31494 h -1.3857 0.042 v 0.042 l 0.042,0.04199 c 0.028,0.02799 0.042,0.04899 0.042,0.06299 0,0.01399 0.014,0.04199 0.042,0.08398 l 0.084,0.08398 c 0,0.05599 0.035,0.11198 0.1049,0.16797 l 0.168,0.20996 c 0.028,0.05599 0.056,0.09799 0.084,0.12598 0.028,0.028 0.056,0.06999 0.084,0.12598 l 0.2519,0.31494 c 0.028,0.05599 0.063,0.11898 0.105,0.18896 0.042,0.06999 0.098,0.13298 0.168,0.18897 l 0.2939,0.44092 0.378,0.5039 0.4409,0.60889 c 0.084,0.11198 0.1679,0.21696 0.2519,0.31494 0.084,0.09798 0.168,0.22396 0.252,0.37793 H 8.78857 v 2.75047"
         fill-rule="evenodd"
         vector-effect="none" />
    </g>
    <g
       id="g16"
       font-style="normal"
       font-weight="400"
       font-size="7.8px"
       font-family="'MS Shell Dlg 2'"
       stroke="none"
       fill-opacity="1"
       fill="#53a54f" />
  </g>
</svg>

<?xml version="1.0" encoding="UTF-8" standalone="no"?>
<svg width="11.2889mm" height="11.2889mm"
 viewBox="0 0 32 32"
 xmlns="http://www.w3.org/2000/svg" xmlns:xlink="http://www.w3.org/1999/xlink"  version="1.2" baseProfile="tiny">
<title>Qt SVG Document</title>
<desc>Generated with Qt</desc>
<defs>
</defs>
<g fill="none" stroke="black" stroke-width="1" fill-rule="evenodd" stroke-linecap="square" stroke-linejoin="bevel" >

<g fill="#53a54f" fill-opacity="1" stroke="none" transform="matrix(1,0,0,1,0,0)"
font-family="MS Shell Dlg 2" font-size="7.8" font-weight="400" font-style="normal" 
>
<path vector-effect="non-scaling-stroke" fill-rule="evenodd" d="M37.2598,16 C37.2598,27.7415 27.7415,37.2598 16,37.2598 C4.25851,37.2598 -5.25984,27.7415 -5.25984,16 C-5.25984,4.25851 4.25851,-5.25984 16,-5.25984 C27.7415,-5.25984 37.2598,4.25851 37.2598,16 "/>
</g>

<g fill="#ffffff" fill-opacity="1" stroke="none" transform="matrix(1,0,0,1,16,12.5984)"
font-family="MS Shell Dlg 2" font-size="7.8" font-weight="400" font-style="normal" 
>
<path vector-effect="none" fill-rule="evenodd" d="M8.78857,10.2617 C9.55843,10.4577 10.2933,10.6851 10.9932,10.9441 C11.693,11.203 12.3859,11.4725 13.0718,11.7524 L13.0718,12.7393 C11.0422,12.4313 8.96004,12.1899 6.82544,12.0149 C4.69084,11.8399 2.46175,11.7524 0.138184,11.7524 C-2.18538,11.7524 -4.44246,11.8609 -6.63306,12.0779 C-8.82365,12.2948 -10.9548,12.5643 -13.0264,12.8862 L-13.0264,11.8364 C-12.2845,11.5285 -11.5321,11.238 -10.7693,10.9651 C-10.0064,10.6921 -9.21208,10.4577 -8.38623,10.2617 L-8.38623,7.51123 L-13.0264,7.51123 L-10.0029,3.41699 L-11.4727,3.41699 L-11.4307,3.375 L-11.3467,3.24902 C-11.3187,3.19303 -11.2907,3.14404 -11.2627,3.10205 C-11.2347,3.06006 -11.1927,3.01107 -11.1367,2.95508 L-10.8218,2.51416 C-10.7658,2.43018 -10.6958,2.33219 -10.6118,2.22021 C-10.5278,2.10824 -10.4438,1.97526 -10.3599,1.82129 L-9.70898,0.876465 C-9.56901,0.708496 -9.42554,0.516032 -9.27856,0.299072 C-9.13159,0.0821126 -8.97412,-0.138346 -8.80615,-0.362305 L-10.0029,-0.362305 L-9.96094,-0.404297 C-9.96094,-0.404297 -9.94694,-0.418294 -9.91895,-0.446289 L-9.87695,-0.530273 C-9.87695,-0.530273 -9.84896,-0.558268 -9.79297,-0.614258 L-9.70898,-0.803223 C-9.68099,-0.831217 -9.65999,-0.859212 -9.646,-0.887207 C-9.632,-0.915202 -9.611,-0.943197 -9.58301,-0.971191 L-9.41504,-1.22314 C-9.35905,-1.27913 -9.32406,-1.32113 -9.31006,-1.34912 C-9.29606,-1.37712 -9.26107,-1.41911 -9.20508,-1.4751 L-8.93213,-1.83203 C-8.82015,-2 -8.72217,-2.12598 -8.63818,-2.20996 L-8.30225,-2.69287 C-8.23226,-2.77686 -8.16227,-2.86084 -8.09229,-2.94482 C-8.0223,-3.02881 -7.95931,-3.12679 -7.90332,-3.23877 L-7.4834,-3.84766 L-7.44141,-3.84766 L-7.44141,-3.80566 C-7.41341,-3.77767 -7.39941,-3.75667 -7.39941,-3.74268 C-7.39941,-3.72868 -7.37842,-3.70768 -7.33643,-3.67969 L-7.12646,-3.42773 C-7.09847,-3.35775 -7.06348,-3.28776 -7.02148,-3.21777 C-6.97949,-3.14779 -6.9305,-3.0708 -6.87451,-2.98682 L-6.3916,-2.37793 C-6.30762,-2.23796 -6.21663,-2.09798 -6.11865,-1.95801 C-6.02067,-1.81803 -5.91569,-1.67106 -5.80371,-1.51709 L-4.98486,-0.362305 L-6.18164,-0.362305 C-6.18164,-0.33431 -6.16764,-0.320313 -6.13965,-0.320313 L-6.09766,-0.236328 C-6.06966,-0.208333 -6.05566,-0.187337 -6.05566,-0.17334 C-6.05566,-0.159342 -6.04167,-0.138346 -6.01367,-0.110352 L-5.8457,0.0996094 C-5.78971,0.155599 -5.74772,0.215088 -5.71973,0.278076 C-5.69173,0.341064 -5.64274,0.400553 -5.57275,0.456543 L-5.19482,0.960449 C-5.13883,1.04443 -5.06885,1.13892 -4.98486,1.2439 C-4.90088,1.34888 -4.81689,1.45736 -4.73291,1.56934 L-4.73291,1.61133 L-4.7749,1.61133 L-4.7749,1.65332 L-4.81689,1.69531 C-4.81689,1.69531 -4.83089,1.70931 -4.85889,1.7373 L-4.90088,1.82129 C-4.90088,1.82129 -4.91488,1.84928 -4.94287,1.90527 L-5.02686,1.98926 C-5.05485,2.03125 -5.06885,2.05924 -5.06885,2.07324 C-5.06885,2.08724 -5.08285,2.10824 -5.11084,2.13623 L-5.23682,2.3042 C-5.29281,2.36019 -5.3348,2.41618 -5.36279,2.47217 L-5.48877,2.64014 C-5.54476,2.75212 -5.60775,2.8361 -5.67773,2.89209 L-3.87207,2.89209 C-3.87207,2.89209 -3.88607,2.91309 -3.91406,2.95508 L-4.04004,3.12305 C-4.09603,3.17904 -4.13802,3.23503 -4.16602,3.29102 C-4.19401,3.34701 -4.236,3.40299 -4.29199,3.45898 L-4.66992,4.02588 C-4.7679,4.13786 -4.85889,4.25684 -4.94287,4.38281 C-5.02686,4.50879 -5.13883,4.66276 -5.27881,4.84473 L-6.09766,5.99951 C-6.23763,6.22347 -6.4021,6.45793 -6.59106,6.70288 C-6.78003,6.94784 -6.98649,7.21729 -7.21045,7.51123 L-6.79053,7.51123 L-6.79053,9.90479 C-5.78271,9.68083 -4.7714,9.51986 -3.75659,9.42188 C-2.74178,9.32389 -1.71647,9.23991 -0.680664,9.16992 L-0.680664,7.1123 L-6.26563,7.1123 L-2.73828,2.34619 L-4.54395,2.34619 L-1.37354,-2.08398 L-2.73828,-2.08398 L0.138184,-6.17822 L3.14063,-2.08398 L1.69189,-2.08398 L4.94629,2.34619 L3.14063,2.34619 L6.66797,7.1123 L0.999023,7.1123 L0.999023,9.16992 C2.09082,9.23991 3.14412,9.31689 4.15894,9.40088 C5.17375,9.48486 6.15706,9.62484 7.10889,9.8208 L7.10889,7.51123 L7.61279,7.51123 L7.5708,7.51123 L7.52881,7.42725 C7.52881,7.38525 7.48682,7.32227 7.40283,7.23828 L7.19287,6.94434 C7.13688,6.86035 7.07039,6.77637 6.99341,6.69238 C6.91642,6.6084 6.84993,6.50342 6.79395,6.37744 L6.20605,5.55859 C6.05208,5.39063 5.91211,5.21566 5.78613,5.03369 C5.66016,4.85173 5.52718,4.64176 5.38721,4.40381 L4.27441,2.89209 L6.08008,2.89209 L5.30322,1.86328 L5.30322,1.82129 L5.34521,1.82129 C5.34521,1.79329 5.38721,1.7373 5.47119,1.65332 C5.47119,1.62533 5.47819,1.60433 5.49219,1.59033 C5.50618,1.57633 5.51318,1.55534 5.51318,1.52734 C5.56917,1.47135 5.61816,1.40837 5.66016,1.33838 C5.70215,1.26839 5.75114,1.18441 5.80713,1.08643 C5.83512,1.03044 5.86312,0.995443 5.89111,0.981445 C5.91911,0.967448 5.9471,0.932454 5.9751,0.876465 C6.10107,0.680501 6.30404,0.393555 6.58398,0.015625 L5.47119,0.015625 L7.82275,-3.28076 L7.88574,-3.28076 C7.88574,-3.28076 7.89974,-3.25277 7.92773,-3.19678 C7.92773,-3.19678 7.94173,-3.16878 7.96973,-3.11279 C7.99772,-3.0848 8.0957,-2.95882 8.26367,-2.73486 C8.31966,-2.62288 8.37565,-2.5389 8.43164,-2.48291 C8.51563,-2.35693 8.61011,-2.21696 8.71509,-2.06299 C8.82007,-1.90902 8.94255,-1.72705 9.08252,-1.51709 C9.13851,-1.4611 9.1875,-1.39111 9.22949,-1.30713 C9.27148,-1.22314 9.32048,-1.15316 9.37646,-1.09717 C9.51644,-0.929199 9.64591,-0.757731 9.76489,-0.582764 C9.88387,-0.407796 10.0133,-0.208333 10.1533,0.015625 L9.04053,0.015625 L9.08252,0.0576172 L9.12451,0.141602 C9.15251,0.141602 9.1665,0.155599 9.1665,0.183594 L9.25049,0.330566 L9.37646,0.456543 L9.50244,0.666504 C9.53044,0.722493 9.59342,0.79248 9.69141,0.876465 L9.90137,1.19141 C9.92936,1.2474 9.95736,1.30339 9.98535,1.35938 C10.0133,1.41536 10.0553,1.47135 10.1113,1.52734 L10.4053,1.94727 C10.4613,2.01725 10.5208,2.09424 10.5837,2.17822 C10.6467,2.26221 10.7062,2.34619 10.7622,2.43018 L11.1401,2.99707 C11.2241,3.10905 11.3046,3.21403 11.3816,3.31201 C11.4586,3.40999 11.5391,3.51497 11.623,3.62695 L10.2373,3.62695 L10.2793,3.62695 L10.2793,3.66895 L10.3213,3.71094 C10.3493,3.73893 10.3633,3.75993 10.3633,3.77393 C10.3633,3.78792 10.3773,3.81592 10.4053,3.85791 L10.4893,3.94189 C10.4893,3.99788 10.5243,4.05387 10.5942,4.10986 L10.7622,4.31982 C10.7902,4.37581 10.8182,4.41781 10.8462,4.4458 C10.8742,4.4738 10.9022,4.51579 10.9302,4.57178 L11.1821,4.88672 C11.2101,4.94271 11.2451,5.0057 11.2871,5.07568 C11.3291,5.14567 11.3851,5.20866 11.4551,5.26465 L11.749,5.70557 L12.127,6.20947 L12.5679,6.81836 C12.6519,6.93034 12.7358,7.03532 12.8198,7.1333 C12.9038,7.23128 12.9878,7.35726 13.0718,7.51123 L8.78857,7.51123 L8.78857,10.2617"/>
</g>

<g fill="#53a54f" fill-opacity="1" stroke="none" transform="matrix(1,0,0,1,0,0)"
font-family="MS Shell Dlg 2" font-size="7.8" font-weight="400" font-style="normal" 
>
</g>
</g>
</svg>
